data/tiles/nrock.svg

<?xml version="1.0" encoding="UTF-8" standalone="no"?>
<!-- Created with Inkscape (http://www.inkscape.org/) -->
<svg
   xmlns:svg="http://www.w3.org/2000/svg"
   xmlns="http://www.w3.org/2000/svg"
   version="1.0"
   width="32"
   height="32"
   id="svg2">
  <defs
     id="defs4" />
  <g
     id="layer1">
    <path
       d="M 6.7857138,6.4642855 L 8.5714278,13.874999 L 10.267856,8.4285705 L 14.464285,8.4285715 L 9.0178568,5.0357145 L 6.7857138,6.4642855 z"
       id="path1895"
       style="fill:#5c4f4b;fill-opacity:1;fill-rule:evenodd;stroke:#000000;stroke-width:1px;stroke-linecap:butt;stroke-linejoin:miter;stroke-opacity:1" />
    <path
       d="M 4.1071425,11.374999 L 11.071429,9.9464289 L 9.2857144,7.8035709 L 5.5357135,7.5357139 L 4.1071425,11.374999 z"
       id="path2786"
       style="fill:#5c4f4b;fill-opacity:1;fill-rule:evenodd;stroke:#000000;stroke-width:1px;stroke-linecap:butt;stroke-linejoin:miter;stroke-opacity:1" />
    <path
       d="M 21.160714,22.758929 L 19.553572,26.776787 L 25,26.955357 L 27.321429,26.151786 L 28.392857,23.026785 L 26.071428,20.973214 L 21.160714,22.758929 z"
       id="path1900"
       style="fill:#5c4f4b;fill-opacity:1;fill-rule:evenodd;stroke:#000000;stroke-width:1px;stroke-linecap:butt;stroke-linejoin:miter;stroke-opacity:1" />
    <path
       d="M 21.071429,28.116072 L 24.196429,27.401787 L 25.178572,25.4375 L 22.5,24.276786 L 21.071429,28.116072 z"
       id="path1902"
       style="fill:#5c4f4b;fill-opacity:1;fill-rule:evenodd;stroke:#000000;stroke-width:1px;stroke-linecap:butt;stroke-linejoin:miter;stroke-opacity:1" />
    <path
       d="M 6.6071425,26.776786 L 8.9285721,26.419643 L 9.3750001,24.723214 L 5.6249992,24.455357 L 6.6071425,26.776786 z"
       id="path1904"
       style="fill:#5c4f4b;fill-opacity:1;fill-rule:evenodd;stroke:#000000;stroke-width:1px;stroke-linecap:butt;stroke-linejoin:miter;stroke-opacity:1" />
    <path
       d="M 26.964287,6.7321429 L 27.410715,5.0357139 L 23.660714,4.7678569 L 26.964287,6.7321429 z"
       id="path1906"
       style="fill:#5c4f4b;fill-opacity:1;fill-rule:evenodd;stroke:#000000;stroke-width:1px;stroke-linecap:butt;stroke-linejoin:miter;stroke-opacity:1" />
  </g>
</svg>

<?xml version="1.0" encoding="UTF-8" standalone="no"?>
<!-- Created with Inkscape (http://www.inkscape.org/) -->
<svg id="svg2" xmlns="http://www.w3.org/2000/svg" height="32" width="32" version="1.0">
 <g id="layer1" stroke-linejoin="miter" fill-rule="evenodd" stroke="#000" stroke-linecap="butt" stroke-width="1px" fill="#5c4f4b">
  <path id="path1" d="M6.7857,6.4643l1.7857,7.4107,1.6966-5.4464h4.196l-5.4461-3.3929-2.2322,1.4286z"/>
  <path id="path2" d="M4.1071,11.375l6.9639-1.4286-1.7853-2.1428-3.75-0.2679-1.4286,3.8393z"/>
  <path id="path3" d="M21.161,22.759l-1.607,4.018,5.446,0.178,2.321-0.803,1.072-3.125-2.322-2.054-4.91,1.786z"/>
  <path id="path4" d="M21.071,28.116l3.125-0.714,0.983-1.964-2.679-1.161-1.429,3.839z"/>
  <path id="path5" d="M6.6071,26.777l2.3215-0.357,0.4464-1.697-3.75-0.268,0.9821,2.322z"/>
  <path id="path6" d="M26.964,6.7321l0.447-1.6964-3.75-0.2678,3.303,1.9642z"/>
 </g>
</svg>
